PC_client/assets/icon/qq.svg

<svg height="64" viewBox="0 0 1024 1024" width="64" xmlns="http://www.w3.org/2000/svg"><path d="m989.22102 683.880869c-22.108255-124.734231-114.976574-206.44607-114.976574-206.44607 13.271776-113.236573-35.380032-133.331885-35.380032-133.331885-10.235304-350.354435-320.501467-344.247371-327.052061-344.076782-6.516477-.170589-316.850875-6.277653-327.017943 344.076782 0 0-48.651809 20.095312-35.380032 133.331885 0 0-92.86832 81.711839-114.976575 206.44607 0 0-11.804717 210.744896 106.140096 25.792964 0 0 26.509436 70.248299 75.161245 133.331885 0 0-86.965962 28.692968-79.596543 103.240094 0 0-2.968238 83.110663 185.702521 77.413011 0 0 132.649532-10.030597 172.464862-64.516529h17.365898.307059 17.365898c39.81533 54.485932 172.464862 64.516529 172.464862 64.516529 188.602524 5.697652 185.702521-77.413011 185.702521-77.413011 7.335301-74.547126-79.596542-103.240094-79.596542-103.240094 48.651808-63.083586 75.161244-133.331885 75.161244-133.331885 117.876577 184.951932 106.140096-25.792964 106.140096-25.792964z" fill="#fff"/></svg>

<?xml version="1.0" standalone="no"?><!DOCTYPE svg PUBLIC "-//W3C//DTD SVG 1.1//EN" "http://www.w3.org/Graphics/SVG/1.1/DTD/svg11.dtd"><svg t="1542346611467" class="icon" style="" viewBox="0 0 1024 1024" version="1.1" xmlns="http://www.w3.org/2000/svg" p-id="9716" xmlns:xlink="http://www.w3.org/1999/xlink" width="64" height="64"><defs><style type="text/css"></style></defs><path d="M989.22102 683.880869C967.112765 559.146638 874.244446 477.434799 874.244446 477.434799 887.516222 364.198226 838.864414 344.102914 838.864414 344.102914 828.62911-6.251521 518.362947-0.144457 511.812353 0.026132 505.295876-0.144457 194.961478-6.251521 184.79441 344.102914 184.79441 344.102914 136.142601 364.198226 149.414378 477.434799 149.414378 477.434799 56.546058 559.146638 34.437803 683.880869 34.437803 683.880869 22.633086 894.625765 140.577899 709.673833 140.577899 709.673833 167.087335 779.922132 215.739144 843.005718 215.739144 843.005718 128.773182 871.698686 136.142601 946.245812 136.142601 946.245812 133.174363 1029.356475 321.845122 1023.658823 321.845122 1023.658823 454.494654 1013.628226 494.309984 959.142294L511.675882 959.142294 511.982941 959.142294 529.348839 959.142294C569.164169 1013.628226 701.813701 1023.658823 701.813701 1023.658823 890.416225 1029.356475 887.516222 946.245812 887.516222 946.245812 894.851523 871.698686 807.91968 843.005718 807.91968 843.005718 856.571488 779.922132 883.080924 709.673833 883.080924 709.673833 1000.957501 894.625765 989.22102 683.880869 989.22102 683.880869Z" p-id="9717" fill="#ffffff"></path></svg>
